X: 40034
T: Three White Cats, The
R: jig
M: 6/8
K: Amajor
CEC A,B,C|EFG A2 B|BAF ECA,|B,CB, B,A,B,|
CEC A,B,C|EFG A2 B|BAF ECA,|B,CB, A,2 B,|
CEC A,B,C|EFG A2 B|BAF ECA,|B,CB, B,A,B,|
CEC A,B,C|EFG A2 B|BAF ECA,|B,CB, A,2 B|
BAF EFA|BAF E2 E|FAF ECA,|B,CB, B,2 B|
BAF EFA|BAF E2 E|FAF ECA,|B,CB, A,2 B|
BAF EFA|BAF E2 E|FAF ECA,|B,CB, B,A,B,|
CEC A,B,C|EFG A2 B|BAF ECA,|B,CB, A,2 B|
cec dfd|cBc BAE|FAF ECA,|B,CB, B,2 B|
cec dfd|cBc BAE|FAF ECA,|B,CB, A,2 B|
cec dfd|cBc BAE|FAF ECA,|B,CB, B,A,B,|
CEC A,B,C|EFG A2 B|BAF ECA,|B,CB, A,3||

